!!!OTL: Die schoene Pfarrkoechin
!!!ARE: Europa, Mitteleuropa, Deutschland
!!!SCT: A0474
!!!YEM: Copyright 1995, estate of Helmut Schaffrath.
**kern
*ICvox
*Ivox
*M4/2
*k[b-e-]
*g:
=1
{2g
2g
2b-
2b-
=2
1g
2fn}
{2fn
=3
2b-
2b-
2cc
2cc
=4
1dd
2r}
{2gg
=5
2.ffn
4dd
2ee-
2cc
=6
1dd
2r}
{2dd
=7
2dd
2dd
2ffn
2b-
=8
1dd
2cc}
{2b-
=9
2a
2g
2g
2f#
=10
0g}
==
!!!AGN: Romanze, Ballade, Lied
!! Forster V 1556 No. 36.
!!!ONB: ESAC (Essen Associative Code) Database: ALTDEU
!!!AMT: simple quadruple
!!!AIN: vox
!!!EED: Helmut Schaffrath
!!!EEV: 1.0
*-
